resources/icons/custom/hc_parabola_channel.svg

<?xml version="1.0" encoding="UTF-8" standalone="no"?>
<svg
   width="24"
   height="24"
   viewBox="0 0 24 24"
   fill="none"
   stroke="currentColor"
   stroke-width="1.5"
   stroke-linecap="round"
   stroke-linejoin="round"
   version="1.1"
   id="svg4"
   sodipodi:docname="hc_parabol_channel.svg"
   inkscape:version="1.2.1 (9c6d41e410, 2022-07-14)"
   xml:space="preserve"
   xmlns:inkscape="http://www.inkscape.org/namespaces/inkscape"
   xmlns:sodipodi="http://sodipodi.sourceforge.net/DTD/sodipodi-0.dtd"
   xmlns="http://www.w3.org/2000/svg"
   xmlns:svg="http://www.w3.org/2000/svg"><defs
     id="defs8"><rect
       x="-4.4583682"
       y="-11.721194"
       width="35.559082"
       height="33.617534"
       id="rect13873" /><rect
       x="-4.4583683"
       y="-11.721194"
       width="35.559082"
       height="33.617535"
       id="rect13873-6" /></defs><sodipodi:namedview
     id="namedview6"
     pagecolor="#505050"
     bordercolor="#ffffff"
     borderopacity="1"
     inkscape:showpageshadow="0"
     inkscape:pageopacity="0"
     inkscape:pagecheckerboard="1"
     inkscape:deskcolor="#505050"
     showgrid="false"
     inkscape:zoom="16"
     inkscape:cx="10.0625"
     inkscape:cy="2.75"
     inkscape:window-width="2520"
     inkscape:window-height="1574"
     inkscape:window-x="-11"
     inkscape:window-y="-11"
     inkscape:window-maximized="1"
     inkscape:current-layer="svg4"
     showguides="false" /><path
     style="fill:#000000;fill-opacity:1;stroke-width:1;stroke-linecap:round;stroke-dasharray:none"
     d="M 1.7421875,4.46875 H 7.609375 L 9.0212341,9.73788 7.9652141,13.679 5.261025,14.403586 2.6468028,9.87562 Z"
     id="path31042"
     sodipodi:nodetypes="ccccccc" /><path
     style="fill:#000000;fill-opacity:1;stroke-width:0.999991;stroke-linecap:round;stroke-dasharray:none"
     d="M 22.69703,4.476549 V 15.634991 H 7.4816031 V 4.476549 c 0,0 2.9894509,11.117851 7.6077139,11.117851 4.618262,0 7.607713,-11.117851 7.607713,-11.117851 z"
     id="path2950-6"
     sodipodi:nodetypes="cccczc" /><g
     id="g21384"
     transform="translate(1.6782504,0.39166287)"><path
       style="fill:#3187ca;fill-opacity:1;stroke:none;stroke-width:1.5;stroke-linecap:round"
       d="M 3.2148425,11.047748 8.3321436,9.4563567 H 20.462317 l -3.834583,1.5913913 z"
       id="path14433"
       sodipodi:nodetypes="ccccc" /><rect
       style="fill:#7cb4df;fill-opacity:1;stroke:none;stroke-width:1.5;stroke-linecap:round"
       id="rect11925"
       width="16.836519"
       height="6.5477486"
       x="2.0745239"
       y="11.047748" /></g><path
     style="fill:#000000;fill-opacity:1;stroke-width:1;stroke-linecap:round;stroke-dasharray:none"
     d="M 20.217076,4.5000247 V 17.98716 H 1.7499919 V 4.5000247 c 0,0 3.6283205,13.4380743 9.2335421,13.4380743 5.605221,0 9.233542,-13.4380743 9.233542,-13.4380743 z"
     id="path2950"
     sodipodi:nodetypes="cccczc" /><path
     style="fill:#000000;fill-opacity:1;stroke-width:1;stroke-linecap:round;stroke-dasharray:none"
     d="m 20.217076,17.98716 2.479969,-2.277107 0,-11.4829423 h -2.30836"
     id="path27660"
     sodipodi:nodetypes="cccc" /></svg>

<?xml version="1.0" encoding="UTF-8"?>
<svg width="24" height="24" fill="none" stroke="currentColor" stroke-linecap="round" stroke-linejoin="round" stroke-width="1.5" version="1.1" viewBox="0 0 24 24" xml:space="preserve"
  xmlns="http://www.w3.org/2000/svg">
  <path d="m1.7422 4.4688h5.8672l1.4119 5.2691-1.056 3.9411-2.7042 0.72459-2.6142-4.528z" fill="#000" stroke-linecap="round" stroke-width="1"/>
  <path d="m22.697 4.4765v11.158h-15.215v-11.158s2.9895 11.118 7.6077 11.118c4.6183 0 7.6077-11.118 7.6077-11.118z" fill="#000" stroke-linecap="round" stroke-width=".99999"/>
  <g transform="translate(1.6783 .39166)" stroke="none">
    <path d="m3.2148 11.048 5.1173-1.5914h12.13l-3.8346 1.5914z" fill="#3187ca"/>
    <rect x="2.0745" y="11.048" width="16.837" height="6.5477" fill="#7cb4df"/>
  </g>
  <path d="m20.217 4.5v13.487h-18.467v-13.487s3.6283 13.438 9.2335 13.438c5.6052 0 9.2335-13.438 9.2335-13.438z" fill="#000" stroke-linecap="round" stroke-width="1"/>
  <path d="m20.217 17.987 2.48-2.2771v-11.483h-2.3084" fill="#000" stroke-linecap="round" stroke-width="1"/>
</svg>
